X: 3065
T: Bean Dubh An Ghleanna
R: reel
M: 4/4
K: Gmajor
D|G3A Bc d2 B<(G|G4) G2 B<d|g2 a3g f<d|c<A B4 GA/B/|
c3B/G/ A3G|FA G4 D2|G3A Bc d2 B<G|(G4 G2) B<d|
g2 a3g f<d|c<A B4 GA/B/|c3B/G/ A3G|FA (G4 G2)||
d|e<f g>e f<g a2|b>a g2 f<d c<A|B>A (G4 G2)|B<d g>e f>g a2|
b>a g2 f<d c<A|B>c A>F G4|G2 B<d g2 (a2|a)g f<d c<A (B2|
B2) G2 A<B (c2|c)B/G/ A3G FA/F/|(G4 G4|G4 G4)||

